white/lrc.svg

<!-- Generated by IcoMoon.io -->
<svg version="1.1" xmlns="http://www.w3.org/2000/svg" width="32" height="32" viewBox="0 0 32 32">
<title>lrc</title>
<path fill="#fff" d="M16 32c-8.837 0-16-7.163-16-16s7.163-16 16-16 16 7.163 16 16-7.163 16-16 16zM16 6l-9 12.533 9 7.467 9-7.467zM14.826 12.667v8.533l-3.913-3.2zM17.174 12.667l3.913 5.333-3.913 3.2z"></path>
</svg>

<svg height="32" width="32" xmlns="http://www.w3.org/2000/svg"><path d="M16 32C7.163 32 0 24.837 0 16S7.163 0 16 0s16 7.163 16 16-7.163 16-16 16zm0-26L7 18.533 16 26l9-7.467zm-1.174 6.667V21.2L10.913 18zm2.348 0L21.087 18l-3.913 3.2z" fill="#fff" fill-rule="evenodd"/></svg>
